img/contacts.svg

<svg width="128pt" height="128pt" viewBox="0 0 128 128" xmlns="http://www.w3.org/2000/svg"><g fill="#fff"><path d="M30.36 10.37C42.06 2.98 56.25-.36 70.02 1.01c15.02 1.29 29.4 8.3 39.82 19.17C121.36 32 128 48.5 127.58 65.03c.1 17.59-7.9 34.9-20.98 46.6-10.68 9.77-24.78 15.34-39.15 16.37h-6.66c-6.12-.63-12.26-1.53-18.03-3.72-17.05-5.94-31.2-19.58-37.82-36.37-6.1-15.16-6.01-32.7.26-47.78 5-12.23 13.94-22.8 25.16-29.76m24.09-4.68C37.84 8.35 22.63 18.46 13.76 32.75 4.73 46.87 2.29 64.93 7.03 80.98c4.45 15.48 15.54 28.89 29.9 36.18 12.83 6.69 28.15 8.26 42.13 4.64 14.63-3.74 27.61-13.39 35.51-26.25 8.17-13.12 10.97-29.52 7.35-44.58-3.4-15.04-12.98-28.54-26.02-36.77C83.76 6.37 68.69 3.37 54.45 5.69z"/><path d="M39.41 35.31c16.3-.01 32.6-.02 48.9.01 0 7.3-.01 14.61.01 21.91C83.18 61.39 78 65.5 72.85 69.65c-3-2.38-5.98-4.78-8.96-7.18l-8.99 7.19c-5.16-4.13-10.3-8.28-15.48-12.39-.02-7.32 0-14.64-.01-21.96m6.54 7.9v2.74c5.12 0 10.23.01 15.34 0v-2.74H45.95m.1 6.72c-.03.8-.1 2.4-.13 3.2 11.32.01 22.65.01 33.97 0-.01-.79-.04-2.39-.05-3.18-11.26-.02-22.52.01-33.79-.02zm-16.48-.37c2.36-.03 4.72-.03 7.08-.02 0 1.89 0 3.79-.02 5.69-2.35-1.89-4.71-3.77-7.06-5.67zm61.5-.02c2.37-.01 4.73-.01 7.1.02-2.35 1.9-4.71 3.79-7.07 5.68-.02-1.9-.03-3.8-.03-5.7zM29 53.13c7.78 6.28 15.69 12.39 23.36 18.8-7.79 6.2-15.56 12.44-23.34 18.66-.04-12.49-.01-24.98-.02-37.46zm46.69 18.81c7.63-6.43 15.56-12.5 23.31-18.79-.01 12.47.02 24.95-.02 37.42-7.76-6.22-15.52-12.44-23.29-18.63z"/><path d="M31.68 92.68c10.76-8.58 21.43-17.29 32.29-25.74 10.66 8.63 21.42 17.14 32.11 25.74-21.46.04-42.93.02-64.4 0z"/></g></svg>

<?xml version="1.0" encoding="UTF-8" ?>
<!DOCTYPE svg PUBLIC "-//W3C//DTD SVG 1.1//EN" "http://www.w3.org/Graphics/SVG/1.1/DTD/svg11.dtd">
<svg width="128pt" height="128pt" viewBox="0 0 128 128" version="1.1" xmlns="http://www.w3.org/2000/svg">
<g id="#ffffffff">
<path fill="#ffffff" opacity="1.00" d=" M 30.36 10.37 C 42.06 2.98 56.25 -0.36 70.02 1.01 C 85.04 2.30 99.42 9.31 109.84 20.18 C 121.36 32.00 128.00 48.50 127.58 65.03 C 127.68 82.62 119.68 99.93 106.60 111.63 C 95.92 121.40 81.82 126.97 67.45 128.00 L 60.79 128.00 C 54.67 127.37 48.53 126.47 42.76 124.28 C 25.71 118.34 11.56 104.70 4.94 87.91 C -1.16 72.75 -1.07 55.21 5.20 40.13 C 10.20 27.90 19.14 17.33 30.36 10.37 M 54.45 5.69 C 37.84 8.35 22.63 18.46 13.76 32.75 C 4.73 46.87 2.29 64.93 7.03 80.98 C 11.48 96.46 22.57 109.87 36.93 117.16 C 49.76 123.85 65.08 125.42 79.06 121.80 C 93.69 118.06 106.67 108.41 114.57 95.55 C 122.74 82.43 125.54 66.03 121.92 50.97 C 118.52 35.93 108.94 22.43 95.90 14.20 C 83.76 6.37 68.69 3.37 54.45 5.69 Z" />
<path fill="#ffffff" opacity="1.00" d=" M 39.41 35.31 C 55.71 35.30 72.01 35.29 88.31 35.32 C 88.31 42.62 88.30 49.93 88.32 57.23 C 83.18 61.39 78.00 65.50 72.85 69.65 C 69.85 67.27 66.87 64.87 63.89 62.47 C 60.89 64.87 57.90 67.26 54.90 69.66 C 49.74 65.53 44.60 61.38 39.42 57.27 C 39.40 49.95 39.42 42.63 39.41 35.31 M 45.95 43.21 C 45.95 43.90 45.95 45.27 45.95 45.95 C 51.07 45.95 56.18 45.96 61.29 45.95 C 61.29 45.26 61.29 43.89 61.29 43.21 C 56.18 43.21 51.06 43.21 45.95 43.21 M 46.05 49.93 C 46.02 50.73 45.95 52.33 45.92 53.13 C 57.24 53.14 68.57 53.14 79.89 53.13 C 79.88 52.34 79.85 50.74 79.84 49.95 C 68.58 49.93 57.32 49.96 46.05 49.93 Z" />
<path fill="#ffffff" opacity="1.00" d=" M 29.57 49.56 C 31.93 49.53 34.29 49.53 36.65 49.54 C 36.65 51.43 36.65 53.33 36.63 55.23 C 34.28 53.34 31.92 51.46 29.57 49.56 Z" />
<path fill="#ffffff" opacity="1.00" d=" M 91.07 49.54 C 93.44 49.53 95.80 49.53 98.17 49.56 C 95.82 51.46 93.46 53.35 91.10 55.24 C 91.08 53.34 91.07 51.44 91.07 49.54 Z" />
<path fill="#ffffff" opacity="1.00" d=" M 29.00 53.13 C 36.78 59.41 44.69 65.52 52.36 71.93 C 44.57 78.13 36.80 84.37 29.02 90.59 C 28.98 78.10 29.01 65.61 29.00 53.13 Z" />
<path fill="#ffffff" opacity="1.00" d=" M 75.69 71.94 C 83.32 65.51 91.25 59.44 99.00 53.15 C 98.99 65.62 99.02 78.10 98.98 90.57 C 91.22 84.35 83.46 78.13 75.69 71.94 Z" />
<path fill="#ffffff" opacity="1.00" d=" M 31.68 92.68 C 42.44 84.10 53.11 75.39 63.97 66.94 C 74.63 75.57 85.39 84.08 96.08 92.68 C 74.62 92.72 53.15 92.70 31.68 92.68 Z" />
</g>
</svg>
